Adwaita++-Dark/actions/16/distribute-horizontal-x.svg

<svg height="16" viewBox="0 0 16 16" width="16" xmlns="http://www.w3.org/2000/svg">
  <path d="m1 3.0039062v9.9999998h4v-9.9999998zm10 0v9.9999998h4v-9.9999998zm-5 3v3.9999998h1v-.9999998h2v.9999998h1v-3.9999998h-1v1h-2v-1z" fill="#e6ddff"/>
</svg>

<svg xmlns="http://www.w3.org/2000/svg" width="16" height="16" viewBox="0 0 16 16">
 <defs>
  <style id="current-color-scheme" type="text/css">
   .ColorScheme-Text { color:#E6DDFF; } .ColorScheme-Highlight { color:#4285f4; }
  </style>
 </defs>
 <path style="fill:currentColor" class="ColorScheme-Text" d="M 1 3.0039062 L 1 13.003906 L 5 13.003906 L 5 3.0039062 L 1 3.0039062 z M 11 3.0039062 L 11 13.003906 L 15 13.003906 L 15 3.0039062 L 11 3.0039062 z M 6 6.0039062 L 6 10.003906 L 7 10.003906 L 7 9.0039062 L 9 9.0039062 L 9 10.003906 L 10 10.003906 L 10 6.0039062 L 9 6.0039062 L 9 7.0039062 L 7 7.0039062 L 7 6.0039062 L 6 6.0039062 z"/>
</svg>
